X:1
T:Title
%%score ( 1 2 ) 3
L:1/8
Q:1/4=92
M:4/4
K:Bb
V:1 treble nm="Grand Piano, Soprano"
V:2 treble 
V:3 bass nm="Choir Pad, Watching for the Morning"
V:1
 [DF]2 [DF]>[_D=E] [=DF]>[_EG] [DF]2 | [B,D]>[DF] [FB]2 [Fc]2 [Fd]2 | %2
w: By~Charles~Hutchinson~Gabriel * * * * *||
 [Fd]>[Fc] [GB]>[GB] [GB]>[GB] [Ac]>[GB] | [FA]>[EG] [DF]6 | %4
w: ||
 [B,D]>[DF] [CE]>[CE] [=B,D]>[CE] [Ec]2 | FE [B,D]2 [DF]2 [DB]2 | %6
w: ||
 [Fd]>[Fd] [Fc]>[Fc] [FA]>[Fc] [=Ec]>B | [=EA]>G F6 | F>F [Fd]>[Fd] [Fd]>[Fd] [Fe]>[Ec] | %9
w: |||
 [DB]>[Fd] [Ec]>[EB] [EA]>[EG] [DF]2 | [B,D]>[DF] [DB]>[DB] [FB]>[Fc] [Fd]>[Fd] | %11
w: ||
 [Ff]>[Fd] c2- [Fc-]>[Fc-] [Fc]2 | F>F [Fd]>[Fd] [Fd]>[Fd] [Fd]>[Ec] | %13
w: ||
 [DB]>[Fd] [Ec]>[EB] [EA]>[EG] [DF]2 | [B,D]>[DF] [FB]>[FB] [GB]>[Ge] [Fd]>[Fd] | %15
w: ||
 [Ec]>[Ec] [DB]6- | [DB]2 z2 z4 |] %17
w: ||
V:2
 x8 | x8 | x8 | x8 | x8 | C2 z2 z4 | x8 | x8 | x8 | x8 | x8 | z2 F2 z4 | x8 | x8 | x8 | x8 | x8 |] %17
V:3
 [B,,B,]2 [B,,B,]>[B,,B,] [B,,B,]>[B,,B,] [B,,B,]2 | [B,,F,]>[B,,B,] [D,B,]2 [F,A,]2 B,2 | %2
 B,>[D,B,] [E,B,]>[E,B,] [E,B,]>[E,B,] [E,B,]>[E,B,] | [E,B,]>[E,B,] [B,,B,]6 | %4
 [B,,F,]>[B,,B,] [F,A,]>[F,A,] [F,A,]>[F,A,] [F,A,]2 | [F,A,]2 [B,,B,]2 [B,,B,]2 [B,,B,]2 | %6
 [B,,B,]>[B,,B,] [C,A,]>[C,A,] [C,C]>[C,A,] [C,G,]2 | [C,C]>B, [F,A,]6 | %8
 [F,A,]>[F,A,] [B,,B,]>[B,,B,] [B,,B,]>[B,,B,] [B,,B,]>[B,,B,] | %9
 [B,,F,]>[B,,B,] [E,G,]>[E,G,] [E,G,]>[E,B,] [B,,B,]2 | %10
 [B,,F,]>[B,,B,] [B,,F,]>[B,,F,] [D,B,]>[F,A,] B,>B, | %11
 [B,D]>B, [F,A,]2 [F,A,]>[F,A,] [F,A,]>[E,C] | %12
 [D,B,]>[C,A,] [B,,B,]>[B,,B,] [B,,B,]>[B,,B,] [B,,B,]>[B,,B,] | %13
 [B,,B,]>[B,,B,] [E,G,]>[E,G,] [E,A,]>[E,B,] [B,,B,]2 | %14
 [B,,F,]>[B,,B,] [D,B,]>[D,B,] [E,B,]>[E,B,] [F,B,]>[F,B,] | [F,A,]>[F,A,] [B,,B,]6- | %16
 [B,,B,]2 z2 z4 |] %17

